X:1
T:Mrs. Kenny's Waltz
O:Matt Cunningham
M:3/4
L:1/8
Q:152
R:Waltz
K:D
de|\
"D"f2 fe dc|de dF G^G|"A"AB AG EA| A,2C2E2| "G"((3gfg) ((3fgf) ((3efe)|
"D"((3ded) ((3cdc) ((3BcB)| "A7"((3ABA) ^GA BG|"D"A2 AB "A"de|"D"f2 fe dc|de dF G^G|
"A"AB AG (3EGA|A,2C2E2| "G"((3gfg) ((3fgf) ((3efe)|"D"((3ded) ce dB|"A7"((3ABA) ^GA Bc|"D"d3d cB||
"D"Ad f2f2|"D/C#"Ad f2f2|"Cdim"Ad f2fa|"Bdim"a^g ba ga|"A"Ace2e2|Ac e2e2|Ac e2e2|"Adim"a^g ba ga|
"D"Ad f2f2|"D/C#"Ad f2f2|"Cdim"Ad f2f2|"Bdim"a^g ba ga|"A"Ace2((3cec)|Ac cAcA|"A+"a^g ba =ge|"D"d3F||
|:FA|\
"D"d2 df ed|"A"((3cec) ce dc|"G"((3BcB) G2B2|"D"((3ABA) F2D2| [d4F4]cA|"A"ce cB cB|"G"AB AG "A"((3EFE)|"D"D4 :|
